Adwaita++/actions/22/link.svg

<svg height="22" viewBox="0 0 22 22" width="22" xmlns="http://www.w3.org/2000/svg">
  <path d="m3 1c-1.108 0-2 .892-2 2v10c0 1.108.892 2 2 2h10c1.108.00002 2-.892 2-2v-4l-2-.0058594v4.0058594h-10v-10h4v-2zm5 0v2h3.585938l-4.4941411 4.4941406-.7070313.7070313.0058594.0058593a1 1 0 0 0 -.4003906.7929688 1 1 0 0 0 1 1 1 1 0 0 0 .7929687-.390625l.0058594.0058594.7070313-.7070313 4.4941402-4.4941406v3.5859375l2 .0058594v-7.0058594z" fill="#444" transform="translate(3 3)"/>
</svg>

<svg xmlns="http://www.w3.org/2000/svg" width="22" height="22" viewBox="0 0 22 22">
 <defs>
  <style id="current-color-scheme" type="text/css">
   .ColorScheme-Text { color:#444444; } .ColorScheme-Highlight { color:#4285f4; }
  </style>
 </defs>
 <path style="fill:currentColor" class="ColorScheme-Text" d="M 3 1 C 1.892 1 1 1.892 1 3 L 1 13 C 1 14.108 1.892 15 3 15 L 13 15 C 14.108 15.00002 15 14.108 15 13 L 15 9 L 13 8.9941406 L 13 13 L 3 13 L 3 3 L 7 3 L 7 1 L 3 1 z M 8 1 L 8 3 L 11.585938 3 L 7.0917969 7.4941406 L 6.3847656 8.2011719 L 6.390625 8.2070312 A 1 1 0 0 0 5.9902344 9 A 1 1 0 0 0 6.9902344 10 A 1 1 0 0 0 7.7832031 9.609375 L 7.7890625 9.6152344 L 8.4960938 8.9082031 L 12.990234 4.4140625 L 12.990234 8 L 14.990234 8.0058594 L 14.990234 1 L 8 1 z" transform="translate(3 3)"/>
</svg>
